X:3
T:The Maiden of Maybury
R:reel
C: 1974, 2010 L.E. McCullough  
M:4/4 
L:1/8
K:Ador 
|:~A3B ~c3A|BGAG E~G3|DEGA ~B3d|BAGE DGBG|~A3B c~A3|
BGAG E~G3|1 DEGA (3B^cd ge|dBBA BAGB:|2 DEGA BAGE|DGBG ~A3B|]
|:degd ~a3b|(3c'ba ag ~a3g|eggf ~g3a|bage d~g3|
eaag ~a3b|(3c'ba ag agef|~g3a gedB|1 G2 (3B^cd gedg:|2 G2 (3B^cd gedG|]
<end>
<start>
